X: 1
T: Morpeth Rant
S: William Thomas Green (1831)
M: 4/4
L: 1/8
R: rant
K: Cmaj
ed|c2GF ECEG|AFAc BGBd|ecfd gedc|B2d2 dfed|
c2GF ECEG|AFAc BGBd|ecfd gedc|G2cc c2:|
|:(3gab|c'gec fafd|egec B2AG|fafd egec|B2GG G2cB|
AFAc fedc|BGBd gfed|ec'ba gfed|c2cc c2:|
